X:1
T:[ID 2-25]
T:[ID 2-25]
T:Bezeichnung standardisiert: Menuet de Roise [1]; Menuet
T:Urheber unbekannt Datum in der hier transkribierten schriftlichen Quelle: 1767
C:Urheber unbekannt
C:Datum in der hier transkribierten schriftlichen Quelle: 1767
L:1/8
M:3/4
K:D
V:1 treble 
V:1
 A2 F2 G2 | A3 B A2 | G2 E2 EF | G3 A G2 | F2 (dc)(cB) | (BA)(AG) F2 | A2 dAGF | E6 :: A2 d2 AB | %9
 _c4 c2 | B2 B2 B_c | A2 AGFG | A2 A2 FG | A2 Bc d2 | (3BAG F2 E2 | D6 :| %16

